X:1
T:Title
%%score { ( 1 3 4 ) | ( 2 5 6 ) }
L:1/8
M:4/4
K:Bb
V:1 treble nm="Grand Piano"
V:3 treble 
V:4 treble 
V:2 bass 
V:5 bass 
V:6 bass 
V:1
 z4 z2[Q:1/4=100] [DF]>[DF] | [DB]>[EA] [FB]c d2 [Fc]>[FB] | B>c BG [DF]2 (3FGA | B6 z2 | %4
[M:3/4] c6 |[M:1/4] F>F |[M:4/4] [DB]>[EA] [FB]c d2 [Fc]>[FB] | %7
 [GB]>[Gc] [GB][B,EG] [B,DF]2 (3eee | d6 z2 |[M:3/4] (3[B,DB-][DB-][DB-] B4 |[M:1/4] (3Bcd | %11
[M:4/4] (3[Ge-][Ge-][Ge-] e4 (3edc |[M:3/4] d6 |[M:1/4] (3dcB |[M:4/4] c6 z2 | %15
[M:3/4] (3[Fd-][Fd-][Fd-] d4 |[M:1/4] F>F |[M:4/4] [DB]>[EA] [FB]c d2 [Fc]>[FB] | %18
 [GB]>[Gc] [GB][B,EG] [B,DF]2 (3eee | d6 z2 |[M:7/4] (3[B,DB-][DB-][DB-] B4 z2 z2 z4 |] %21
V:2
 z4 z2 [B,,B,]>[B,,B,] | [B,,F,]>[C,F,] [D,B,][K:treble][F,A,F] [B,F]2[K:bass] [D,B,]>[D,B,] | %2
 [E,G,E]>[E,G,E] [E,G,E][E,B,E] [B,,B,]2 z2 | (3[G,B,D][G,B,][G,B,] [G,B,][G,B,] [G,B,]2 z2 | %4
[M:3/4] (3[F,A,F][F,A,][F,A,] [C,G,][C,B,] [F,A,]2 |[M:1/4] [F,A,]>[F,E] | %6
[M:4/4] [B,,F,]>[C,F,] [D,B,][K:treble][F,A,F] [B,F]2[K:bass] [D,B,]>[D,B,] | %7
 [E,E]>[E,E] [E,E]E, B,,2[K:treble] (3GGG | %8
 (3[F,B,F][F,B,][F,B,] [F,B,][F,C] [F,D]2 (3[F,A,E][F,A,F][F,A,E] |[M:3/4] (3z B,B, z2 z2 | %10
[M:1/4] z2 |[M:4/4] (3[E,B,][E,B,][E,B,] [E,B,][E,B,] [E,B,]2 z2 | %12
[M:3/4][K:treble] (3[B,F]B,B, B,B, B,2 |[M:1/4] z2 | %14
[M:4/4][K:bass] (3[F,A,F][F,A,][F,A,] [C,G,][C,B,] [F,A,]2 z2 | %15
[M:3/4] (3[B,,B,][B,,B,][B,,B,] [B,,B,][B,,B,] [B,,B,]2 |[M:1/4] [F,A,]>[F,E] | %17
[M:4/4] [B,,F,]>[C,F,] [D,B,][K:treble][F,A,F] [B,F]2[K:bass] [D,B,]>[D,B,] | %18
 [E,E]>[E,E] [E,E]E, B,,2[K:treble] (3GGG | %19
 (3[F,B,F][F,B,][F,B,] [F,B,][F,C] [F,D]2 (3[F,A,E][F,A,F][F,A,E] | %20
[M:7/4] (3z B,B, z2 z2 z2 z2 z4 |] %21
V:3
 x8 | x8 | x8 | (3z DD z2 z2 (3dcB |[M:3/4] (3z FF z2 z2 |[M:1/4] x2 |[M:4/4] x8 | x8 | %8
 (3z FF z2 z2 (3cdc |[M:3/4] z2 EE D2 |[M:1/4] x2 |[M:4/4] z2 GG G2 z2 |[M:3/4] (3z FF z2 z2 | %13
[M:1/4] x2 |[M:4/4] (3z FF z2 z2 (3cBc |[M:3/4] z2 FF F2 |[M:1/4] x2 |[M:4/4] x8 | x8 | %19
 (3z FF z2 z2 (3cdc |[M:7/4] z2 EE D2 z2 z2 z4 |] %21
V:4
 x8 | x8 | x8 | z2 DD D2 z2 |[M:3/4] z2 =EE F2 |[M:1/4] x2 |[M:4/4] x8 | x8 | z2 DE F2 z2 | %9
[M:3/4] x6 |[M:1/4] x2 |[M:4/4] x8 |[M:3/4] z2 FF F2 |[M:1/4] x2 |[M:4/4] z2 =EE F2 z2 | %15
[M:3/4] x6 |[M:1/4] x2 |[M:4/4] x8 | x8 | z2 DE F2 z2 |[M:7/4] x14 |] %21
V:5
 x8 | x3[K:treble] x3[K:bass] x2 | x8 | x8 |[M:3/4] x6 |[M:1/4] x2 | %6
[M:4/4] x3[K:treble] x3[K:bass] x2 | x6[K:treble] x2 | x8 |[M:3/4] z2 G,G, F,2 |[M:1/4] x2 | %11
[M:4/4] x8 |[M:3/4][K:treble] x6 |[M:1/4] x2 |[M:4/4][K:bass] x8 |[M:3/4] x6 |[M:1/4] x2 | %17
[M:4/4] x3[K:treble] x3[K:bass] x2 | x6[K:treble] x2 | x8 |[M:7/4] z2 G,G, F,2 z2 z2 z4 |] %21
V:6
 x8 | x3[K:treble] x3[K:bass] x2 | x8 | x8 |[M:3/4] x6 |[M:1/4] x2 | %6
[M:4/4] x3[K:treble] x3[K:bass] x2 | x6[K:treble] x2 | x8 |[M:3/4] B,,6 |[M:1/4] x2 |[M:4/4] x8 | %12
[M:3/4][K:treble] x6 |[M:1/4] x2 |[M:4/4][K:bass] x8 |[M:3/4] x6 |[M:1/4] x2 | %17
[M:4/4] x3[K:treble] x3[K:bass] x2 | x6[K:treble] x2 | x8 |[M:7/4] B,,6 z2 z2 z4 |] %21

